src/assets/billz-calculator-logo.svg

<svg width="1717" height="512" viewBox="0 0 1717 512" fill="none" xmlns="http://www.w3.org/2000/svg">
<path fill-rule="evenodd" clip-rule="evenodd" d="M165.43 0H346.57C437.934 0 512 74.0656 512 165.43V346.57C512 437.934 437.934 512 346.57 512H165.43C74.0656 512 0 437.934 0 346.57V165.43C0 74.0656 74.0656 0 165.43 0ZM384 117.062C384 100.363 368.667 85 352 85H160C142.667 85 128 100.363 128 117.062V394.938C128 412.305 142.667 427 160 427H352C368.667 427 384 412.305 384 394.938V117.062ZM170.667 223.938V245.312C170.667 251.324 175.333 256 181.333 256H202.667C208 256 213.333 251.324 213.333 245.312V223.938C213.333 218.594 208 213.25 202.667 213.25H181.333C175.333 213.25 170.667 218.594 170.667 223.938ZM170.667 288.062V309.438C170.667 315.449 175.333 320.125 181.333 320.125H202.667C208 320.125 213.333 315.449 213.333 309.438V288.062C213.333 282.719 208 277.375 202.667 277.375H181.333C175.333 277.375 170.667 282.719 170.667 288.062ZM277.333 373.562V352.188C277.333 346.844 272 341.5 266.667 341.5H181.333C175.333 341.5 170.667 346.844 170.667 352.188V373.562C170.667 379.574 175.333 384.25 181.333 384.25H266.667C272 384.25 277.333 379.574 277.333 373.562ZM277.333 309.438V288.062C277.333 282.719 272 277.375 266.667 277.375H245.333C239.333 277.375 234.667 282.719 234.667 288.062V309.438C234.667 315.449 239.333 320.125 245.333 320.125H266.667C272 320.125 277.333 315.449 277.333 309.438ZM277.333 245.312V223.938C277.333 218.594 272 213.25 266.667 213.25H245.333C239.333 213.25 234.667 218.594 234.667 223.938V245.312C234.667 251.324 239.333 256 245.333 256H266.667C272 256 277.333 251.324 277.333 245.312ZM341.333 373.562V352.188C341.333 346.844 336 341.5 330.667 341.5H309.333C303.333 341.5 298.667 346.844 298.667 352.188V373.562C298.667 379.574 303.333 384.25 309.333 384.25H330.667C336 384.25 341.333 379.574 341.333 373.562ZM341.333 309.438V288.062C341.333 282.719 336 277.375 330.667 277.375H309.333C303.333 277.375 298.667 282.719 298.667 288.062V309.438C298.667 315.449 303.333 320.125 309.333 320.125H330.667C336 320.125 341.333 315.449 341.333 309.438ZM341.333 245.312V223.938C341.333 218.594 336 213.25 330.667 213.25H309.333C303.333 213.25 298.667 218.594 298.667 223.938V245.312C298.667 251.324 303.333 256 309.333 256H330.667C336 256 341.333 251.324 341.333 245.312ZM341.333 181.188V138.438C341.333 133.094 336 127.75 330.667 127.75H181.333C175.333 127.75 170.667 133.094 170.667 138.438V181.188C170.667 187.199 175.333 191.875 181.333 191.875H330.667C336 191.875 341.333 187.199 341.333 181.188Z" fill="white"/>
<path d="M1603.19 261.578H1705.78V228.253H1603.18C1607.05 239.024 1607.05 250.807 1603.18 261.578" fill="white"/>
<path d="M693.203 51.3736H608V261.527H687.194C738.263 261.527 758.391 238.411 758.391 198.78C758.391 163.641 732.553 151.629 732.553 151.629C739.466 146.956 745.113 140.644 748.992 133.258C752.872 125.872 754.861 117.641 754.784 109.3C754.784 73.8622 734.954 51.3427 693.203 51.3427V51.3736ZM696.501 84.6686C712.425 84.6686 720.206 94.8775 720.206 109.897C720.206 127.008 709.085 136.022 692.863 136.022H642.846V84.7201L696.501 84.6686ZM642.846 169.049H692.894C716.331 169.049 722.947 182.854 722.947 198.78C722.947 218.59 715.733 228.202 688.4 228.202H642.846V169.049ZM910.648 51.3736H875.493V261.527H910.648V51.3736ZM1050.96 51.3736V261.527H1186.92V228.253H1086.1V51.3736H1050.96ZM1302.13 51.3736V261.527H1438.09V228.253H1337.22V51.3736H1302.13Z" fill="white"/>
<path d="M1656.72 81.0835L1653.94 84.72L1554.99 213.377C1548.89 213.711 1543.02 215.807 1538.08 219.411C1533.14 223.016 1529.36 227.974 1527.19 233.685C1525.01 239.395 1524.54 245.614 1525.83 251.586C1527.12 257.558 1530.12 263.028 1534.46 267.332C1538.8 271.636 1544.29 274.591 1550.28 275.836C1556.26 277.082 1562.48 276.566 1568.18 274.351C1573.87 272.136 1578.8 268.317 1582.37 263.357C1585.94 258.396 1588 252.508 1588.28 246.404C1588.56 241.065 1587.46 235.745 1585.09 230.952L1686.64 99.5647C1693.4 99.3083 1699.89 96.8896 1705.17 92.665C1710.45 88.4405 1714.23 82.6333 1715.95 76.0991C1717.68 69.5649 1717.26 62.6491 1714.76 56.3706C1712.26 50.0921 1707.8 44.7829 1702.06 41.225C1696.31 37.6671 1689.57 36.0488 1682.83 36.6083C1676.09 37.1679 1669.71 39.8758 1664.63 44.3332C1659.55 48.7905 1656.03 54.7616 1654.6 61.3667C1653.17 67.9719 1653.9 74.8619 1656.68 81.0217" fill="white"/>
<path d="M1639.06 51.3737H1539.58V84.6996H1639.06C1635.2 73.9269 1635.2 62.1463 1639.06 51.3737Z" fill="white"/>
<path d="M662.672 438.034C650.164 438.034 639.819 433.904 631.638 425.644C623.535 417.384 619.484 407.236 619.484 395.2C619.484 383.164 623.535 373.016 631.638 364.756C639.819 356.496 650.164 352.366 662.672 352.366C670.224 352.366 677.147 354.175 683.44 357.794C689.812 361.413 694.768 366.29 698.308 372.426L688.75 377.972C686.39 373.409 682.85 369.791 678.13 367.116C673.489 364.363 668.336 362.986 662.672 362.986C653.153 362.986 645.365 366.054 639.308 372.19C633.329 378.326 630.34 385.996 630.34 395.2C630.34 404.325 633.329 411.956 639.308 418.092C645.365 424.228 653.153 427.296 662.672 427.296C668.336 427.296 673.489 425.959 678.13 423.284C682.85 420.531 686.39 416.912 688.75 412.428L698.308 417.856C694.847 423.992 689.93 428.909 683.558 432.606C677.186 436.225 670.224 438.034 662.672 438.034ZM804.333 436.5L797.607 417.974H760.437L753.711 436.5H742.029L772.827 353.9H785.217L816.015 436.5H804.333ZM764.213 407.708H793.831L778.963 366.998L764.213 407.708ZM876.853 426.116H912.489V436.5H865.879V353.9H876.853V426.116ZM996.792 438.034C984.284 438.034 973.939 433.904 965.758 425.644C957.655 417.384 953.604 407.236 953.604 395.2C953.604 383.164 957.655 373.016 965.758 364.756C973.939 356.496 984.284 352.366 996.792 352.366C1004.34 352.366 1011.27 354.175 1017.56 357.794C1023.93 361.413 1028.89 366.29 1032.43 372.426L1022.87 377.972C1020.51 373.409 1016.97 369.791 1012.25 367.116C1007.61 364.363 1002.46 362.986 996.792 362.986C987.273 362.986 979.485 366.054 973.428 372.19C967.449 378.326 964.46 385.996 964.46 395.2C964.46 404.325 967.449 411.956 973.428 418.092C979.485 424.228 987.273 427.296 996.792 427.296C1002.46 427.296 1007.61 425.959 1012.25 423.284C1016.97 420.531 1020.51 416.912 1022.87 412.428L1032.43 417.856C1028.97 423.992 1024.05 428.909 1017.68 432.606C1011.31 436.225 1004.34 438.034 996.792 438.034ZM1137.25 430.128C1131.51 435.399 1124.07 438.034 1114.95 438.034C1105.82 438.034 1098.35 435.399 1092.53 430.128C1086.79 424.779 1083.91 417.659 1083.91 408.77V353.9H1094.89V408.298C1094.89 414.119 1096.62 418.761 1100.08 422.222C1103.54 425.605 1108.5 427.296 1114.95 427.296C1121.4 427.296 1126.36 425.605 1129.82 422.222C1133.28 418.761 1135.01 414.119 1135.01 408.298V353.9H1145.86V408.77C1145.86 417.659 1142.99 424.779 1137.25 430.128ZM1213.74 426.116H1249.37V436.5H1202.76V353.9H1213.74V426.116ZM1357.2 436.5L1350.48 417.974H1313.31L1306.58 436.5H1294.9L1325.7 353.9H1338.09L1368.89 436.5H1357.2ZM1317.08 407.708H1346.7L1331.83 366.998L1317.08 407.708ZM1465.62 353.9V364.284H1441.2V436.5H1430.34V364.284H1406.03V353.9H1465.62ZM1580.55 425.526C1572.29 433.865 1562.19 438.034 1550.23 438.034C1538.27 438.034 1528.16 433.865 1519.9 425.526C1511.64 417.187 1507.51 407.079 1507.51 395.2C1507.51 383.243 1511.64 373.134 1519.9 364.874C1528.16 356.535 1538.27 352.366 1550.23 352.366C1562.19 352.366 1572.29 356.535 1580.55 364.874C1588.89 373.134 1593.06 383.243 1593.06 395.2C1593.06 407.079 1588.89 417.187 1580.55 425.526ZM1527.45 418.092C1533.59 424.228 1541.18 427.296 1550.23 427.296C1559.27 427.296 1566.83 424.228 1572.88 418.092C1579.02 411.877 1582.09 404.247 1582.09 395.2C1582.09 386.075 1579.02 378.444 1572.88 372.308C1566.83 366.093 1559.27 362.986 1550.23 362.986C1541.18 362.986 1533.59 366.093 1527.45 372.308C1521.4 378.444 1518.37 386.075 1518.37 395.2C1518.37 404.247 1521.4 411.877 1527.45 418.092ZM1695.35 436.5L1676.82 404.876H1657.35V436.5H1646.38V353.9H1679.42C1686.5 353.9 1692.55 356.417 1697.59 361.452C1702.62 366.408 1705.14 372.426 1705.14 379.506C1705.14 384.855 1703.53 389.733 1700.3 394.138C1697.15 398.543 1693.06 401.651 1688.03 403.46L1707.5 436.5H1695.35ZM1657.35 364.166V394.964H1679.42C1683.51 394.964 1686.97 393.469 1689.8 390.48C1692.71 387.412 1694.17 383.754 1694.17 379.506C1694.17 375.258 1692.71 371.639 1689.8 368.65C1686.97 365.661 1683.51 364.166 1679.42 364.166H1657.35Z" fill="white"/>
</svg>

<svg version="1.2" xmlns="http://www.w3.org/2000/svg" viewBox="0 0 1717 512" width="1717" height="512">
	<style>
		.s0 { fill: #0b66fb } 
	</style>
	<path fill-rule="evenodd" class="s0" d="m165.43 0h181.14c91.36 0 165.43 74.07 165.43 165.43v181.14c0 91.36-74.07 165.43-165.43 165.43h-181.14c-91.36 0-165.43-74.07-165.43-165.43v-181.14c0-91.36 74.07-165.43 165.43-165.43zm218.57 117.06c0-16.7-15.33-32.06-32-32.06h-192c-17.33 0-32 15.36-32 32.06v277.88c0 17.36 14.67 32.06 32 32.06h192c16.67 0 32-14.7 32-32.06zm-202.67 96.19h21.34c5.33 0 10.66 5.34 10.66 10.68v21.38c0 6.01-5.33 10.69-10.66 10.69h-21.34c-6 0-10.66-4.68-10.66-10.69v-21.38c0-5.34 4.66-10.68 10.66-10.68zm0 64.12h21.34c5.33 0 10.66 5.34 10.66 10.69v21.37c0 6.01-5.33 10.69-10.66 10.69h-21.34c-6 0-10.66-4.68-10.66-10.69v-21.37c0-5.35 4.66-10.69 10.66-10.69zm85.34 106.88h-85.34c-6 0-10.66-4.68-10.66-10.69v-21.38c0-5.34 4.66-10.68 10.66-10.68h85.34c5.33 0 10.66 5.34 10.66 10.68v21.38c0 6.01-5.33 10.69-10.66 10.69zm0-64.13h-21.34c-6 0-10.66-4.68-10.66-10.69v-21.37c0-5.35 4.66-10.69 10.66-10.69h21.34c5.33 0 10.66 5.34 10.66 10.69v21.37c0 6.01-5.33 10.69-10.66 10.69zm0-64.12h-21.34c-6 0-10.66-4.68-10.66-10.69v-21.38c0-5.34 4.66-10.68 10.66-10.68h21.34c5.33 0 10.66 5.34 10.66 10.68v21.38c0 6.01-5.33 10.69-10.66 10.69zm64 128.25h-21.34c-6 0-10.66-4.68-10.66-10.69v-21.38c0-5.34 4.66-10.68 10.66-10.68h21.34c5.33 0 10.66 5.34 10.66 10.68v21.38c0 6.01-5.33 10.69-10.66 10.69zm0-64.13h-21.34c-6 0-10.66-4.68-10.66-10.69v-21.37c0-5.35 4.66-10.69 10.66-10.69h21.34c5.33 0 10.66 5.34 10.66 10.69v21.37c0 6.01-5.33 10.69-10.66 10.69zm0-64.12h-21.34c-6 0-10.66-4.68-10.66-10.69v-21.38c0-5.34 4.66-10.68 10.66-10.68h21.34c5.33 0 10.66 5.34 10.66 10.68v21.38c0 6.01-5.33 10.69-10.66 10.69zm0-64.13h-149.34c-6 0-10.66-4.68-10.66-10.69v-42.75c0-5.34 4.66-10.68 10.66-10.68h149.34c5.33 0 10.66 5.34 10.66 10.68v42.75c0 6.01-5.33 10.69-10.66 10.69z"/>
	<path class="s0" d="m1603.19 261.58h102.59v-33.33h-102.6c3.87 10.77 3.87 22.56 0.01 33.33z"/>
	<path class="s0" d="m693.2 45.37h-85.2v210.16h79.19c51.07 0 71.2-23.12 71.2-62.75 0-35.14-25.84-47.15-25.84-47.15 6.92-4.67 12.56-10.99 16.44-18.37 3.88-7.39 5.87-15.62 5.79-23.96 0-35.44-19.83-57.96-61.58-57.96zm3.3 33.3c15.92 0 23.71 10.21 23.71 25.23 0 17.11-11.13 26.12-27.35 26.12h-50.01v-51.3zm-53.66 84.38h50.05c23.44 0 30.05 13.8 30.05 29.73 0 19.81-7.21 29.42-34.55 29.42h-45.55zm267.8-117.67h-35.15v210.15h35.15zm140.31 0v210.15h135.97v-33.27h-100.83v-176.88zm251.17 0v210.15h135.96v-33.27h-100.87v-176.88z"/>
	<path class="s0" d="m1656.72 81.08l-2.78 3.64-98.95 128.66c-6.1 0.33-11.97 2.43-16.91 6.03-4.94 3.61-8.72 8.56-10.89 14.28-2.18 5.71-2.65 11.92-1.36 17.9 1.29 5.97 4.29 11.44 8.63 15.74 4.34 4.31 9.83 7.26 15.82 8.51 5.98 1.24 12.2 0.73 17.9-1.49 5.69-2.21 10.62-6.03 14.19-10.99 3.57-4.96 5.63-10.85 5.91-16.96 0.28-5.33-0.82-10.65-3.19-15.45l101.55-131.39c6.76-0.25 13.25-2.67 18.53-6.89 5.28-4.23 9.06-10.04 10.78-16.57 1.73-6.54 1.31-13.45-1.19-19.73-2.5-6.28-6.96-11.59-12.7-15.14-5.75-3.56-12.49-5.18-19.23-4.62-6.74 0.56-13.12 3.27-18.2 7.72-5.08 4.46-8.6 10.43-10.03 17.04-1.43 6.6-0.7 13.49 2.08 19.65"/>
	<path class="s0" d="m1639.06 51.37h-99.48v33.33h99.48c-3.86-10.77-3.86-22.55 0-33.33z"/>
	<path class="s0" d="m662.67 438.03q-18.76 0-31.03-12.39-12.16-12.39-12.16-30.44 0-18.05 12.16-30.44 12.27-12.39 31.03-12.39 11.33 0 20.77 5.42 9.56 5.43 14.87 14.64l-9.56 5.54q-3.54-6.84-10.62-10.85-6.96-4.13-15.46-4.13-14.28 0-23.36 9.2-8.97 9.2-8.97 23.01 0 13.69 8.97 22.89 9.08 9.21 23.36 9.21 8.5 0 15.46-4.02 7.08-4.13 10.62-10.85l9.56 5.43q-5.19 9.2-14.75 14.75-9.56 5.42-20.89 5.42zm141.66-1.53l-6.72-18.53h-37.17l-6.73 18.53h-11.68l30.8-82.6h12.39l30.8 82.6zm-40.12-28.79h29.61l-14.86-40.71zm112.64 18.41h35.63v10.38h-46.61v-82.6h10.98zm119.93 11.92q-18.76 0-31.03-12.39-12.15-12.39-12.15-30.45 0-18.05 12.15-30.44 12.27-12.39 31.03-12.39 11.33 0 20.77 5.43 9.56 5.43 14.87 14.63l-9.56 5.55q-3.54-6.85-10.62-10.86-6.96-4.13-15.46-4.13-14.27 0-23.36 9.2-8.97 9.21-8.97 23.01 0 13.69 8.97 22.9 9.09 9.2 23.36 9.2 8.5 0 15.46-4.01 7.08-4.13 10.62-10.86l9.56 5.43q-5.19 9.2-14.75 14.75-9.56 5.43-20.89 5.43zm140.46-7.91q-8.61 7.91-22.3 7.91-13.69 0-22.42-7.91-8.61-8.02-8.62-21.36v-54.87h10.98v54.4q0 8.73 5.19 13.93 5.19 5.07 14.87 5.07 9.68 0 14.87-5.07 5.19-5.2 5.19-13.93v-54.4h10.85v54.87q0 13.34-8.61 21.36zm76.49-4.01h35.63v10.38h-46.61v-82.6h10.98zm143.46 10.39l-6.72-18.53h-37.17l-6.73 18.53h-11.68l30.8-82.6h12.39l30.8 82.6zm-40.12-28.79h29.62l-14.87-40.71zm148.54-53.81v10.38h-24.42v72.22h-10.86v-72.22h-24.31v-10.38zm114.93 71.62q-12.38 12.51-30.32 12.51-17.94 0-30.33-12.51-12.39-12.5-12.39-30.32 0-17.94 12.39-30.33 12.39-12.51 30.33-12.51 17.94 0 30.32 12.51 12.51 12.39 12.51 30.33 0 17.82-12.51 30.32zm-53.1-7.43q9.21 9.2 22.78 9.2 13.57 0 22.65-9.2 9.21-9.32 9.21-22.89 0-13.69-9.21-22.89-9.08-9.33-22.65-9.33-13.57 0-22.78 9.33-9.08 9.2-9.08 22.89 0 13.57 9.08 22.89zm167.9 18.41l-18.53-31.63h-19.47v31.63h-10.97v-82.6h33.04q10.62 0 18.17 7.55 7.55 7.43 7.55 18.05 0 8.03-4.84 14.64-4.72 6.6-12.27 9.32l19.47 33.04zm-38-72.34v30.8h22.07q6.14 0 10.38-4.48 4.37-4.6 4.37-10.98 0-6.37-4.37-10.85-4.24-4.49-10.38-4.49z"/>
</svg>
